X:1
T:Les Sept Ivresses
T:Le Désir
T:Les Sept Ivresses
T:Augusta Mary Anne Holmès
T:6. Le Désir
T:OpenScore (CC0)
T:OpenScore (CC0)
T:OpenScore (CC0)
T:OpenScore (CC0)
T:OpenScore (CC0)
T:OpenScore (CC0)
C:Augusta Mary Anne Holmès
Z:[Composer]
Z:OpenScore (CC0)
%%score 1 { ( 2 5 ) | ( 3 4 ) }
L:1/8
Q:1/4=72
M:4/4
K:Gb
V:1 treble nm="Chant\nVoice"
V:2 treble nm="Piano"
V:5 treble 
V:3 bass 
V:4 bass 
V:1
"^Moderato" z8 | z4!mf! z3/2 B/ B3/2 B/ | e3 B G2- G!p! z/ G/ ||[M:2/4]!<(! G3/2 G/ A3/2 A/!<)! || %4
w: |So yez mau-|dits, cru- els _ qui|dans la geô- le|
[M:4/4] (B4 E2) z2 ||[M:2/4] z!<(! B B A/ G/!<)! ||[M:3/4] (e2 =d4) |!f! (f2 e3) B |!>(! (c6!>)! | %9
w: som- bre|Où mon dés- es-|\- poir _|rit _ dans|l'om-|
 F3/2) F/ G3/2 G/ A3/2 A/ ||[M:4/4] B2 c3/2 c/ e2 e3/2 =d/ ||[M:3/4] f4- f z | %12
w: \- bre, Lais- sez en- trer les|feux a- do- ra- bles du|jour! _|
[Q:1/4=68]"^un poco più lento"!mf! =g2- g d d e/ _f/ | B B/ c/ d2 c3/2 B/ | d2 =c2- c z/ A/ || %15
w: Vous _ qui par les bar-|reaux de l'é- troi- te fe-|nê- tre _ Vou-|
[M:4/4]!<(! =A3/2 A/ =c3/2 c/ e3/2 e/!<)! (3gf e || %16
w: \- lez que jus- qu'à moi pé- nè- * tre|
[M:3/4]!p![Q:1/4=66]"^rall." d2[Q:1/4=64] (3:2:2B2 G[Q:1/4=63] (3cd e | %17
w: L'air plein de chants _ d'oi-|
[Q:1/4=62] d2 (3B A G[Q:1/4=61] e2- | e4 e2 ||[K:Eb][Q:1/4=72]"^a Tempo" B6- | B2 z2 z2 || %21
w: \- seaux et de sou- pirs|_ d'a-|mour!|_|
[M:3/8][Q:1/4=70]"^Poco più lento" z/!pp! F/ G/ A/ B/ c/ ||[M:2/4] d c/ B/ (3c d f || %23
w: Oui, je les vois pas-|\- ser, ceux qui l'âme em- bra-|
[M:3/4] e B/ G/ B3/2 c/ F/ G/ A/ c/ | (B/B/) B c d[Q:1/4=62]"^rall." a3/2 g/[Q:1/4=52] | %25
w: sé- e S'en vont, les pieds dans la ro-|\- sée, _ Et les che- veux fleu-|
[Q:1/4=72]"^a Tempo" (3f e B G2 F3/2 E/ | B4- B z | z6 ||[M:3/8]!pp! z/ F/ G/ A/ B/ c/ | %29
w: ris d'é- glan- ti- nes de|Mai, _||Les a- mou- reux u-|
 d/ c/ B/ c/ d/ f/ ||[M:4/4] e B/ G/ B2 _d c/ B/ e3/2 e/ ||[M:3/4] (g4 d2) | %32
w: \- nis aux frê- les a- mou-|reu- ses Er- rants vers les fo- rêts heu-|\- reu- *|
 f2 (3z e!<(! d (3c d e!<)! | g4 B3/2 e/ | c4 d3/2 B/ | e4- e z | z2 z2!mf! e3/2 _c/ | B2- B2 z2 | %38
w: ses Qu'em- plit le frais ré-|veil du ma-|\- tin par- fu-|mé! _|Ah! mou-|\- rir! _|
 z2 z!f! e- e/ _c/ B/ c/ | _g4- g z | z2 z!<(! e e e!<)! | _g3!>(! f e g!>)! |!p! B4 F/ G/ A/ c/ | %43
w: Oh! _ ne plus rien|voir! _|ne plus en-|ten- dre La chan-|son ra- di- euse et|
 (G2 B3) B |!<(! _c3/2 c/ e3/2 e/ _g z/!<)! g/ |!f! =a6 |!p! =A2 A3 A | %47
w: ten- dre Qui|parle à mon né- ant d'es-|poir|et de beau-|
 B2- B z[Q:1/4=68] z2[Q:1/4=66][Q:1/4=64][Q:1/4=62] |[Q:1/4=72] z6 | z6 | z4 z!f! B || %51
w: té! _|||Mais|
[K:Gb][M:4/4] e2 z!p! e G3 G |"^cresc." A2 B3/2 B/ _c2 d3/2 d/ ||[M:3/4] e3/2 e/ f2 g3/2 g/ || %54
w: non! La mort peut-|\- être est la geôle é- ter-|nelle Où l'âme en- chaîn-|
[M:2/4] =g2 a3/2 a/ ||[M:4/4]!f! (=a4 =A2) A3/2 A/ |!<(! (B4 e2) g3/2 e/!<)! |!ff! b4- b z!p! B2 | %58
w: \- née et sans|ai- le Souf- fri-|ra _ du dé-|\- sir _ pen-|
 B8 | B4 B3 B | =B8 | z8 | z8 | z8 | z8 | z8 |] %66
w: dant|l'é- ter- ni-|té!||||||
V:2
!>(! [EGB]!f![EGB]- (3[EGB][EGB][EGB] [EGB] [EGB]2 [EGB]- | %1
!mf! [EGB] [EGB]- (3[EGB][EGB][EGB] [EGB] [EGB]2!>)! [EGB] | %2
!p! z [EGB]-!<(! (3[EGB][EGB][EGB] [EGB] [EGc]2 [EGc]-!<)! ||[M:2/4] [EGc] [EGc]2 [EFc] || %4
[M:4/4] z!>(! [EGB]- (3[EGB][EGB][EGB]- [EGB] [EGB]2 [EGB]- ||[M:2/4] [EGB] [EGB]2 [EGB]!>)! || %6
[M:3/4]"_cresc." z [FA]- [FA][FA]- (3[FA][FA][FA] | z [GB]- [GB][GB]- (3[GB][GB][GB] | %8
"_dim." z [Ac]- [Ac][Ac]- (3[Ac][Ac][Ac] |!p! z [Ac] z [Be]2 [cf] || %10
[M:4/4] z!<(! [eg]2 [ea]2 [fc']2 [fc']!<)! ||[M:3/4]!mf!!>(! [fb]4- [fb]!>)! z | %12
!mf! z [db]2 [db]2 [db]- | [db]"_dim." [db]2 [db]2 [db] | z [db]2 [=ca]2 [ca] || %15
[M:4/4]!p! z!<(! [=cg]2 [cg]2 [cg]2!<)! [e=a] ||[M:3/4]!p!!<(! (b2-"_rall." bd' e'2!<)! | %17
!>(! f'g' d'2) c'2-!>)! | c'4- c' z ||[K:Eb]!pp! b2- (3bab (3c'd'f' | (e'b/g/ b>c' f/g/a/c'/) || %21
[M:3/8]!pp! b3- ||[M:2/4] b2 x2 ||[M:3/4] z!pp! [Begb]2 [Begb] z [Bdab] | %24
 z [Bdab]2"_rall." [Bdab]2 [Bdab] | z [Begb]2 [Begb]2 [ceg] |"_legato"!p! z [dab] x2 x2 | %27
!p! (eB/G/ B>c F/G/A/c/) ||[M:3/8]!pp! z [dab]2 | [dab]2 [dab] || %30
[M:4/4] z [Bgb]2 [Bgb]2 [Bgb]2 [Bgb] ||[M:3/4]!pp! z [=Bg=b]2 [Bgb]2 [Bgb] | %32
 z [=Bd=b]2 [Bdb]2 [ce=a] | z [Beb]2 [Beb]2 [Beb] | z [cea]2 [cea]2 [Bda] | z [G_dg]2 [Gdg]2 [dg] | %36
 z [cea]2 [cea]2 [_cea] |!pp! z [G_dg]2 [Gdg]2 [dg] | z [cea]2 [cea]2 [_cea] | %39
!f! z [B_f]2 [Bf]2 [f_g] | z [e_g]2!<(! [_ceg]2 [ceg] | z [=ceg]2 [ceg]2!<)! [ceg] | %42
!p! x [da]2 [da] x x | [dd'][ee'] z [eg]2 [eg] | x!<(! [e_g]2 [eg]2!<)! !>![eg] | %45
!f! [_g=a] z z2 z2 | z6 |[K:bass]!p! (B,4"_poco rall." F,/_G,/A,/_C/) |"_a Tempo" B,6- | B,6- | %50
 B,4- B, z ||[K:Gb][M:4/4]!f! [E,G,C] z z2 z4 | z8 ||[M:3/4] z6 ||[M:2/4] z4 || %55
[M:4/4][K:treble]!f!!>(! [^c=g]8 |!p! [e_g]4-!>)! [eg]2 z2 | %57
!ff! ([g-b-f']2!>(! [gbe']2-) [gbe'] z z2!>)! | ([=E=G]8 | [FA]8) | %60
!>(! ([=A,-=D-^G]4 [A,D^F]2)!>)!!<(! =A,^C!<)! | ([A,-=D-_G]4 [A,DF]4-) | [A,=DF]2 z2 z4 | %63
!>(! [G,-B,-F]8 | [G,B,E]8- | [G,B,E]2!>)! z2 !fermata!z4 |] %66
V:3
!ped! z [E,G,B,]- (3[E,G,B,][E,G,B,][E,G,B,] [E,G,B,] [E,G,B,]2!ped-up! [E,G,B,]- | %1
 [E,G,B,] [E,G,B,]- (3[E,G,B,][E,G,B,][E,G,B,] [E,G,B,] [E,G,B,]2 [E,G,B,] | %2
 z [E,G,B,]- (3[E,G,B,][E,G,B,][E,G,B,] [E,G,B,] [E,G,C]2 [E,G,C]- || %3
[M:2/4] [E,G,C] [E,G,C]2 [E,A,C] || %4
[M:4/4] z [E,G,B,]- (3[E,G,B,][E,G,B,][E,G,B,] [E,G,B,] [E,G,B,]2 [E,G,B,]- || %5
[M:2/4] [E,G,B,] [E,G,B,]2 [E,G,B,] || %6
[M:3/4] z ([F,-A,-E] [F,A,E])([F,-A,-=D] (3[F,A,D])[F,A,D][F,A,D] | %7
 z ([G,-B,-F] [G,B,F])([G,-B,-E] (3[G,B,E])[G,B,E][G,B,E] | %8
 z ([A,-C-G] [A,CG])([A,-C-G] (3[A,CG])[A,CG][A,CG] | z [A,CF] z[K:treble] G2 A || %10
[M:4/4] z x2 x2 e2 e ||[M:3/4]!ped! [B=d]4- [Bd] z!ped-up! | %12
[K:bass]!ped! z [B,E=G]2 [B,EG]2 [B,EG]-!ped-up! | [B,E=G] [B,EG]2 [B,EG]2 [B,EG] | %14
!ped! z [A,E_G]2 [A,EG]2 [A,EG]!ped-up! ||[M:4/4] z [=A,EG]2 [A,EG]2 [A,EG]2 [=CG] || %16
[M:3/4]!ped! z [DGB]2 [DGB]2[K:treble] [D-Fc-]!ped-up! | ([DAc][DGB]-) [DGB][DGB] [EG__B]2- | %18
 [EG__B]4- [EGB] z ||[K:Eb][K:bass]"_una corda" z [B,DA]2 [B,DA]2 [B,DA] | %20
 z [B,EG]2 [B,EG] z [B,DA] ||[M:3/8]!ped! B,,3- ||[M:2/4] B,,2 x2!ped-up! || %23
[M:3/4]!ped! z [B,EG]2 [B,EG]!ped! x!ped-up! [B,DA] | z [B,DA]2 [B,DA]2 [B,DA] | %25
 z [B,EG]2 [B,EG]2 [CEG] | z [B,DA]2 [B,DA]2 [B,DA] | z [B,EG]2 [B,EG] z [B,D] ||[M:3/8] B,,3- | %29
 B,,3 ||[M:4/4] z [B,EG]2 [B,EG]2 [B,EG]2 [B,EG] ||[M:3/4]!ped! z [=B,DG]2 [B,DG]2!ped-up! [B,DG] | %32
 z [=B,DA]2 [B,DA]2 [CE=A] | z [B,EG]2 [B,EG]2 [B,EG] |[K:treble] z [B,EA]2 [B,EA]2 [B,FA] | %35
[K:bass]!ped! z!p! [B,E] (3z (_D!<(!E (3FGB!ped-up!!<)! |!>(! AE/C/ E4)!>)! | %37
 z [B,E] (3z (_DE (3FGB | AE/C/ E4) |[K:treble] _G2- (3(G_FG (3AB_d) | (_c_G/_E/ G4 | =A4-) A2 | %42
[K:bass]!ped! z [B,DA]2 [B,DA]2!ped-up! [B,DA] | z [B,EG]2 [B,EG]2 [B,EG] | %44
[K:treble] z [__B,E_G]2 [EG__B]2 [G=A=c] | [=Ace] z z2 z2 | z6 |[K:bass] z2!pp! [B,,,B,,]2 z2 | %48
 z2 [B,,,B,,] z z2 | z2 [B,,,B,,] z z2 | z2 [B,,,B,,] z z2 ||[K:Gb][M:4/4] [__B,,,__B,,] z z2 z4 | %52
 z8 ||[M:3/4] z6 ||[M:2/4] z4 ||[M:4/4][K:treble] [=E=A]8 | [GB]4- [GB]2 z2 | %57
[K:bass]!ped! [B,,,E,,G,,B,,]4- [B,,,E,,G,,B,,]2!ped-up! z2 |[K:treble]!pp! ([B,-_D]8 | [B,=D]8) | %60
[K:bass] [=B,,,=B,,]4- [B,,,B,,]2 x2 |!>(! [_B,,,_B,,]4- [B,,,B,,]2!>)! z2 | %62
!pp!!<(! (B,,,2 =E,,2 F,,2 B,,2)!<)! | !arpeggio![E,,-=D,]8 | [E,,E,]8- | %65
 [E,,E,]2 z2 !fermata!z4 |] %66
V:4
 E,,4- E,,2 z2 | x8 | E,,4- E,,2 z2 ||[M:2/4] x4 ||[M:4/4] E,,4- E,,2 z2 ||[M:2/4] x4 || %6
[M:3/4] F,,4- F,,2 | G,,4- G,,2 | A,,4- A,,2 | x3[K:treble] x3 ||[M:4/4] x B2 c2- c2- c || %11
[M:3/4] z B,2 (B, (3B,)B,B, |[K:bass] E,4- E,2 | x6 | A,,4- A,,2 ||[M:4/4] x8 || %16
[M:3/4] D,4- D,[K:treble] x | x6 | x6 ||[K:Eb][K:bass] B,,4- B,,2 | E,2- E, z z2 || %21
[M:3/8] z [B,DA]2 ||[M:2/4] [B,DA]2 [B,DA]2 ||[M:3/4] (E,4 F,2-) | F,4 z2 | E,4- E, z | F,4- F,2 | %27
 E,4 z2 ||[M:3/8] z [B,D]2 | [B,D]2 [B,D] ||[M:4/4] E,8 ||[M:3/4] =B,,6- | =B,,2 z2 z2 | %33
 B,,4- B,,2 |[K:treble] x6 |[K:bass] E,4- E,2 | x6 | E,4- E,2 | x6 | %39
[K:treble] !arpeggio!_G,2- G,2 x2 | x6 | x6 |[K:bass] F,4- F,2 | E,4- E,2 |[K:treble] x6 | x6 | %46
 x6 |[K:bass] x6 | x6 | x6 | x6 ||[K:Gb][M:4/4] x8 | x8 ||[M:3/4] x6 ||[M:2/4] x4 || %55
[M:4/4][K:treble] x8 | x8 |[K:bass] x8 |[K:treble] x8 | x8 |[K:bass] z4 ^F,^G, z2 | x8 | x8 | x8 | %64
 x8 | x8 |] %66
V:5
 x8 | x8 | x8 ||[M:2/4] x4 ||[M:4/4] x8 ||[M:2/4] x4 ||[M:3/4] x6 | x6 | x6 | x6 ||[M:4/4] x8 || %11
[M:3/4] x6 | x6 | x6 | x6 ||[M:4/4] x8 ||[M:3/4] x6 | x6 | x6 ||[K:Eb] x6 | x6 || %21
[M:3/8] z [Bda]2 ||[M:2/4] [Bda]2 [Bda]2 ||[M:3/4] x6 | x6 | x6 | B2- (3(BAB (3cdf) | x6 || %28
[M:3/8] B3 | x3 ||[M:4/4] _d8 ||[M:3/4] =d6 | f2- f z z2 | g4- g2 | x6 | e4- e2 | x6 | e4- e2 | %38
 x6 | _g2- g2 x2 | x6 | x6 | ([Bb]4- [Bb][cc'] | x2 [Bb]4) | [_c_c']4- [cc'] x | x6 | x6 | %47
[K:bass] x6 | z2 [_D,=E,G,] z z2 | z2 [C,E,_G,] z z2 | z2 [D,F,] z z2 ||[K:Gb][M:4/4] x8 | x8 || %53
[M:3/4] x6 ||[M:2/4] x4 ||[M:4/4][K:treble] x8 | x8 | x8 | x8 | x8 | x8 | x8 | x8 | x8 | x8 | x8 |] %66

